X:1
T:D minor Daniel Belknap, 1797
T:Isaac Watts, 1709 (Hymn 62, Book 2)        86. 86. (C. M.)
T:Malden
T:Transcribed from The Harmonist's Companion, 1797.
%%score [ 1 2 3 4 ]
L:1/8
Q:1/4=120
M:4/4
K:F
V:1 treble nm="Voice"
V:2 treble nm="Voice"
V:3 treble-8 nm="Tenor"
V:4 bass nm="Bass"
V:1
 A8 | A4 A4 | d2 cB A2 A2 | A8- | A4 d4 | d2 A2 B2 AB | (c>dcB A2 d2 | ^c8) |: z8 | z8 | z4 F2 AA | %11
w: 1.~Sing|to the|Lord, ye * heav'n- ly|hosts,~|_ And|thou, O earth, a- *|dore,~ _ _ _ _ _|_|||Let death and|
 A2 A2 d2 B2 | (A>BAG A4) | A4 A2 A2 | AB c2 d4 | d2 dd c2 B2 | AB c2 d4- | d4 d4 | (A>GFG A2) d2 | %19
w: hell through all their|coasts~ _ _ _ _|Stand trem- bling|at * his power;|Let death and hell through|all * their coasts~|_ Stand|trem- * * * * bling|
 (A>BAG F2 A2 | B4) A4 | A8 :| %22
w: at~ _ _ _ _ _|_ his|power.|
V:2
 D8 | F4 F4 | D2 E2 F2 E2 | F8- | F4 F4 | D2 D2 E2 F2 | (E6 D2 | E8) |: z8 | z8 | z8 | z4 F2 FG | %12
w: |||||||||||Let death and|
 A2 A2 A2 A2 | (A>GFG A4- | A8) | G2 GG G2 G2 | A2 G2 F4- | F4 F4 | (F>GAG F2) F2 | (A8 | %20
w: hell through all their|coasts~ _ _ _ _|_||||||
 G>AGF) E4 | F8 :| %22
w: ||
V:3
 A8 | d4 d4 | f2 e2 d2 ^c2 | d8- | d4 A4 | B2 A2 G2 F2 | (G4 c2 B2 | A8) |: z8 | z4 F2 FG | %10
w: 1.~Sing|to the|Lord, ye heav'n- ly|hosts,~|_ And|thou, O earth, a-|dore,~ _ _|_||Let death and|
 A2 A2 d2 e2 | (f>ed^c d4- | d4) d4 | d2 d2 (d>ed^c | d2) c>B A4 | B2 BA G2 G2 | F2 G2 A4- | %17
w: hell through all their|coasts~ _ _ _ _|_ Stand|trem- bling at~ _ _ _|_ his * power;|Let death and hell through|all their coasts~|
 A4 d4 | (f>ed^c d2) A2 | (F>GAB c2 A2 | d4) ^c4 | d8 :| %22
w: _ Stand|trem- * * * * bling|at~ _ _ _ _ _|_ his|power.|
V:4
 D,8 | D,4 D,4 | D,2 A,2 F,G, A,2 | D,8- | D,4 D,4 | G,2 F,2 E,2 D,2 | (C,6 D,2 | A,,8) |: %8
w: ||||||||
 z4 A,,2 A,,A,, | D,2 D,2 F,2 B,2 | (A,>G,F,E, D,4- | D,4) D,4 | D,2 D,2 (D,>E,D,^C, | %13
w: Let death and|hell through all their|coasts~ _ _ _ _|_ Stand|trem- bling at~ _ _ _|
 D,2) A,,2 D,4- | D,8 | G,2 G,F, E,2 E,2 | F,2 E,2 D,4- | D,4 D,4 | D,6 D,2 | (D,>E,F,G, A,2 F,2 | %20
w: _ his power;~|_||||||
 G,4) A,4 | D,8 :| %22
w: ||

